svg/u1f447_1f3fc.svg

<svg viewBox="0 0 128 128" xmlns="http://www.w3.org/2000/svg">
  <linearGradient id="a" gradientTransform="matrix(.0020953 -1 -1 -.0020953 -905.16 1159)" gradientUnits="userSpaceOnUse" x1="1038.7" x2="1155.3" y1="-966.85" y2="-966.85">
    <stop offset=".1277" stop-color="#CCA47A"/>
    <stop offset=".6418" stop-color="#E0BB95"/>
  </linearGradient>
  <path d="m76.38 122.36c-6.58 0-8.79-5.73-8.79-8.34l0.04-19.58c0-0.47-0.22-0.92-0.6-1.21-0.26-0.2-0.58-0.3-0.9-0.3-0.14 0-0.29 0.02-0.43 0.06-1.42 0.43-2.79 0.64-4.06 0.64-3.8 0-6.26-1.95-7.65-3.59-1.1-1.29-2.71-2.02-4.42-2.02-0.62 0-1.23 0.1-1.81 0.29-0.73 0.24-1.51 0.36-2.32 0.36-1.29 0-2.68-0.31-4.1-0.92-1.89-0.81-3.29-2.24-4.14-3.31-0.9-1.13-2.75-3.03-5-3.03-0.34 0-0.67 0.04-0.99 0.13-0.48 0.13-1.05 0.2-1.65 0.2-2.73 0-6.31-1.36-8.13-5.18-1.65-3.44-1.61-22.48-1.59-28.73 0.03-16.45 11.37-39.88 11.49-40.12 0.04-0.08 0.07-0.16 0.1-0.25 0.3-1.07 1.29-1.82 2.4-1.82l39.73 0.34c1.14 0.02 2.13 0.82 2.4 1.94l0.3 1.29c1.48 6.37 5.2 12.04 10.75 16.42 1.19 0.94 2.21 2.06 3.04 3.33 4.44 6.85 6.89 12.87 9.25 18.69 2.23 5.51 4.34 10.71 7.93 16.08 0.8 1.2 1.38 4.5 0.5 7.14-0.56 1.7-1.62 2.84-3.14 3.37-1.22 0.43-2.33 0.64-3.39 0.64-3.77 0-7.07-2.81-10.71-9.12-3.89-6.73-4.13-8.5-4.14-8.57-0.03-0.81-0.69-1.43-1.5-1.43h-0.02c-0.82 0.01-1.47 0.7-1.48 1.52l-0.12 57.07c0 2.09-1.26 8.01-6.85 8.01z" fill="url(#a)"/>
  <path d="m33.83 4.14 0.02 3 39.69 0.35c0.46 0.01 0.86 0.32 0.96 0.77l0.3 1.29c1.56 6.7 5.46 12.67 11.29 17.25 1.06 0.84 1.97 1.84 2.71 2.97 4.37 6.73 6.78 12.68 9.12 18.44 2.26 5.58 4.4 10.85 8.07 16.35 0.45 0.68 1.11 3.48 0.32 5.84-0.56 1.67-1.53 2.19-2.22 2.43-1.06 0.38-2 0.56-2.89 0.56-2.13 0-5.13-0.95-9.41-8.37-3.27-5.67-3.86-7.65-3.94-8-0.12-1.5-1.34-2.69-2.87-2.76h-0.12c-1.56 0-2.87 1.2-2.99 2.76-0.01 0.08-0.01 0.17-0.01 0.26l-0.12 57.07c0 0.06-0.23 6.49-5.35 6.49-5.99 0-7.29-5.48-7.29-6.83l0.04-19.59c0-0.95-0.45-1.84-1.21-2.41-0.52-0.39-1.15-0.59-1.79-0.59-0.29 0-0.58 0.04-0.86 0.13-1.28 0.39-2.5 0.58-3.63 0.58-2.59 0-4.78-1.03-6.51-3.06-1.38-1.62-3.41-2.55-5.56-2.55-0.78 0-1.54 0.12-2.28 0.36-0.58 0.19-1.2 0.29-1.86 0.29-1.09 0-2.27-0.27-3.51-0.8-1.6-0.68-2.81-1.93-3.55-2.86-1.07-1.34-3.29-3.59-6.17-3.59-0.47 0-0.94 0.06-1.39 0.19-0.34 0.09-0.79 0.15-1.26 0.15-2.28 0-5.25-1.14-6.78-4.33-0.68-1.43-1.49-7.46-1.45-28.08 0.04-16.1 11.23-39.25 11.34-39.48 0.08-0.16 0.14-0.33 0.19-0.5 0.12-0.43 0.52-0.73 0.96-0.73l0.01-3m0 0c-1.79 0-3.36 1.19-3.85 2.91 0 0-11.61 23.79-11.64 40.78-0.02 11.55 0.14 26.04 1.74 29.38 2.16 4.52 6.37 6.03 9.49 6.03 0.76 0 1.46-0.09 2.05-0.25 0.2-0.05 0.4-0.08 0.6-0.08 1.44 0 2.9 1.3 3.82 2.46 1.05 1.32 2.62 2.85 4.72 3.75 1.78 0.76 3.35 1.04 4.69 1.04 1.08 0 2.01-0.18 2.79-0.43 0.44-0.14 0.89-0.21 1.35-0.21 1.24 0 2.45 0.53 3.28 1.5 1.64 1.93 4.46 4.11 8.79 4.11 1.35 0 2.84-0.21 4.49-0.71l-0.04 19.59c0 3.17 2.62 9.84 10.29 9.84 6.34 0 8.35-6.34 8.35-9.49l0.12-57.07v-0.03 0.03c0.01 0.24 0.21 2.09 4.33 9.23 3.86 6.69 7.57 9.87 12.01 9.87 1.23 0 2.53-0.25 3.89-0.73 5.76-2.05 5.06-10.25 3.39-12.76-7.26-10.88-8.43-21.3-17.17-34.76-1-1.55-2.18-2.75-3.37-3.69-5.03-3.96-8.77-9.34-10.22-15.58l-0.3-1.29c-0.43-1.79-2.02-3.07-3.87-3.09l-39.69-0.35h-0.04z" fill="#BA8F63"/>
  <path d="m68.64 74.29 0.46 21.16-2.45-1.7c-0.59 0-1.04-0.77-0.97-1.65l0.77-17.84c0.14-1.77 2.1-1.75 2.19 0.03z" fill="#BA8F63"/>
  <path d="m84.8 49.27 2.81 6.97 0.94 2.47-3.32-0.87-3.23-0.94 0.09-7.48c-0.01-1.38 2.15-1.24 2.71-0.15z" fill="#BA8F63"/>
  <path d="m51.53 73.89 0.77 13.07c0.05 0.59-2.52 0.25-2.52 0.25-0.59 0-1.04-0.53-0.97-1.13l0.77-12.23c0.13-1.21 1.85-1.18 1.95 0.04z" fill="#BA8F63"/>
  <path d="m34.9 74.12 0.77 7.04c0.05 0.32-2.52 0.13-2.52 0.13-0.59 0-1.04-0.28-0.97-0.61l0.77-6.58c0.14-0.65 1.86-0.63 1.95 0.02z" fill="#BA8F63"/>
</svg>

<svg viewBox="0 0 128 128" xmlns="http://www.w3.org/2000/svg">
  <defs>
    <linearGradient id="a" gradientTransform="matrix(0.002095 -1 -1 -0.002095 0 0)" gradientUnits="userSpaceOnUse" x1="-122.191485" x2="-5.591485" y1="-64.122416" y2="-64.122416">
      <stop offset=".1277" stop-color="#CCA47A"/>
      <stop offset=".6418" stop-color="#E0BB95"/>
    </linearGradient>
  </defs>
  <path d="M76.38,122.36 C69.8,122.36 67.59,116.63 67.59,114.02 L67.63,94.44 C67.63,93.97 67.41,93.52 67.03,93.23 C66.77,93.03 66.45,92.93 66.13,92.93 C65.99,92.93 65.84,92.95 65.7,92.99 C64.28,93.42 62.91,93.63 61.64,93.63 C57.84,93.63 55.38,91.68 53.99,90.04 C52.89,88.75 51.28,88.02 49.57,88.02 C48.95,88.02 48.34,88.12 47.76,88.31 C47.03,88.55 46.25,88.67 45.44,88.67 C44.15,88.67 42.76,88.36 41.34,87.75 C39.45,86.94 38.05,85.51 37.2,84.44 C36.3,83.31 34.45,81.41 32.2,81.41 C31.86,81.41 31.53,81.45 31.21,81.54 C30.73,81.67 30.16,81.74 29.56,81.74 C26.83,81.74 23.25,80.38 21.43,76.56 C19.78,73.12 19.82,54.08 19.84,47.83 C19.87,31.38 31.21,7.95 31.33,7.71 C31.37,7.63 31.4,7.55 31.43,7.46 C31.73,6.39 32.72,5.64 33.83,5.64 L73.56,5.98 C74.7,6 75.69,6.8 75.96,7.92 L76.26,9.21 C77.74,15.58 81.46,21.25 87.01,25.63 C88.2,26.57 89.22,27.69 90.05,28.96 C94.49,35.81 96.94,41.83 99.3,47.65 C101.53,53.16 103.64,58.36 107.23,63.73 C108.03,64.93 108.61,68.23 107.73,70.87 C107.17,72.57 106.11,73.71 104.59,74.24 C103.37,74.67 102.26,74.88 101.2,74.88 C97.43,74.88 94.13,72.07 90.49,65.76 C86.6,59.03 86.36,57.26 86.35,57.19 C86.32,56.38 85.66,55.76 84.85,55.76 L84.83,55.76 C84.01,55.77 83.36,56.46 83.35,57.28 L83.23,114.35 C83.23,116.44 81.97,122.36 76.38,122.36 Z" fill="url(#a)"/>
  <path d="M33.83,4.14 L33.85,7.14 L73.54,7.49 C74,7.5 74.4,7.81 74.5,8.26 L74.8,9.55 C76.36,16.25 80.26,22.22 86.09,26.8 C87.15,27.64 88.06,28.64 88.8,29.77 C93.17,36.5 95.58,42.45 97.92,48.21 C100.18,53.79 102.32,59.06 105.99,64.56 C106.44,65.24 107.1,68.04 106.31,70.4 C105.75,72.07 104.78,72.59 104.09,72.83 C103.03,73.21 102.09,73.39 101.2,73.39 C99.07,73.39 96.07,72.44 91.79,65.02 C88.52,59.35 87.93,57.37 87.85,57.02 C87.73,55.52 86.51,54.33 84.98,54.26 L84.86,54.26 C83.3,54.26 81.99,55.46 81.87,57.02 C81.86,57.1 81.86,57.19 81.86,57.28 L81.74,114.35 C81.74,114.41 81.51,120.84 76.39,120.84 C70.4,120.84 69.1,115.36 69.1,114.01 L69.14,94.42 C69.14,93.47 68.69,92.58 67.93,92.01 C67.41,91.62 66.78,91.42 66.14,91.42 C65.85,91.42 65.56,91.46 65.28,91.55 C64,91.94 62.78,92.13 61.65,92.13 C59.06,92.13 56.87,91.1 55.14,89.07 C53.76,87.45 51.73,86.52 49.58,86.52 C48.8,86.52 48.04,86.64 47.3,86.88 C46.72,87.07 46.1,87.17 45.44,87.17 C44.35,87.17 43.17,86.9 41.93,86.37 C40.33,85.69 39.12,84.44 38.38,83.51 C37.31,82.17 35.09,79.92 32.21,79.92 C31.74,79.92 31.27,79.98 30.82,80.11 C30.48,80.2 30.03,80.26 29.56,80.26 C27.28,80.26 24.31,79.12 22.78,75.93 C22.1,74.5 21.29,68.47 21.33,47.85 C21.37,31.75 32.56,8.6 32.67,8.37 C32.75,8.21 32.81,8.04 32.86,7.87 C32.98,7.44 33.38,7.14 33.82,7.14 L33.83,4.14 M33.83,4.14 C32.04,4.14 30.47,5.33 29.98,7.05 C29.98,7.05 18.37,30.84 18.34,47.83 C18.32,59.38 18.48,73.87 20.08,77.21 C22.24,81.73 26.45,83.24 29.57,83.24 C30.33,83.24 31.03,83.15 31.62,82.99 C31.82,82.94 32.02,82.91 32.22,82.91 C33.66,82.91 35.12,84.21 36.04,85.37 C37.09,86.69 38.66,88.22 40.76,89.12 C42.54,89.88 44.11,90.16 45.45,90.16 C46.53,90.16 47.46,89.98 48.24,89.73 C48.68,89.59 49.13,89.52 49.59,89.52 C50.83,89.52 52.04,90.05 52.87,91.02 C54.51,92.95 57.33,95.13 61.66,95.13 C63.01,95.13 64.5,94.92 66.15,94.42 L66.11,114.01 C66.11,117.18 68.73,123.85 76.4,123.85 C82.74,123.85 84.75,117.51 84.75,114.36 L84.87,57.29 L84.87,57.26 L84.87,57.29 C84.88,57.53 85.08,59.38 89.2,66.52 C93.06,73.21 96.77,76.39 101.21,76.39 C102.44,76.39 103.74,76.14 105.1,75.66 C110.86,73.61 110.16,65.41 108.49,62.9 C101.23,52.02 100.06,41.6 91.32,28.14 C90.32,26.59 89.14,25.39 87.95,24.45 C82.92,20.49 79.18,15.11 77.73,8.87 L77.43,7.58 C77,5.79 75.41,4.51 73.56,4.49 L33.87,4.14 L33.83,4.14 Z" fill="#BA8F63"/>
  <path d="M68.64,74.29 L69.1,95.45 L66.65,93.75 C66.06,93.75 65.61,92.98 65.68,92.1 L66.45,74.26 C66.59,72.49 68.55,72.51 68.64,74.29 Z" fill="#BA8F63"/>
  <path d="M84.8,49.27 L87.61,56.24 L88.55,58.71 L85.23,57.84 L82,56.9 L82.09,49.42 C82.08,48.04 84.24,48.18 84.8,49.27 Z" fill="#BA8F63"/>
  <path d="M51.53,73.89 L52.3,86.96 C52.35,87.55 49.78,87.21 49.78,87.21 C49.19,87.21 48.74,86.68 48.81,86.08 L49.58,73.85 C49.71,72.64 51.43,72.67 51.53,73.89 Z" fill="#BA8F63"/>
  <path d="M34.9,74.12 L35.67,81.16 C35.72,81.48 33.15,81.29 33.15,81.29 C32.56,81.29 32.11,81.01 32.18,80.68 L32.95,74.1 C33.09,73.45 34.81,73.47 34.9,74.12 Z" fill="#BA8F63"/>
</svg>
